public/library/arculus-text-light.svg

<svg xmlns="http://www.w3.org/2000/svg" width="165" height="48" viewBox="0 0 165 48" fill="none">
                <path d="M40.4006 37.3885H43.9261L43.9249 37.3909C43.9838 37.3912 44.0402 37.4146 44.0818 37.4561C44.1235 37.4976 44.147 37.5538 44.1473 37.6125V39.6907C44.1473 39.7496 44.1239 39.8061 44.0823 39.8478C44.0406 39.8896 43.984 39.9132 43.9249 39.9135H40.4006C40.2775 39.9135 40.1781 39.8133 40.1781 39.6907V37.6125C40.178 37.5832 40.1836 37.5542 40.1947 37.5272C40.2058 37.5001 40.2221 37.4754 40.2428 37.4546C40.2634 37.4338 40.288 37.4173 40.3151 37.4059C40.3421 37.3946 40.3712 37.3887 40.4006 37.3885Z" fill="#131C1B"/>
                <path d="M11.4426 34.7292L19.4023 32.499L19.4058 33.1225L12.3394 36.8345V39.1921C12.3394 39.2199 12.3339 39.2475 12.3231 39.2732C12.3124 39.2989 12.2966 39.3222 12.2767 39.3418L11.5728 40.0302H11.348L10.6594 39.3406C10.6216 39.3017 10.5979 39.2486 10.5979 39.1932V36.8369L3.53146 33.1237L3.53619 33.3052L8.98539 38.7783V47.2962C8.98553 47.33 8.97594 47.3631 8.95776 47.3916C8.93959 47.4202 8.91359 47.4429 8.88284 47.4572C8.85209 47.4714 8.81789 47.4766 8.78427 47.4721C8.75066 47.4676 8.71905 47.4536 8.69318 47.4317C7.67101 46.5924 4.24484 43.629 3.00854 40.6655L0.210586 28.1445L0 22.8848L0.32416 22.8895L1.17597 24.5351V24.4597C1.17262 22.1531 1.95371 19.9135 3.39185 18.1061C4.20699 16.9803 5.36876 15.9489 7.01795 15.2157C7.97817 14.757 9.00445 14.4508 10.0596 14.308L11.2604 0H11.4426V32.8608C11.4426 32.8608 5.72841 32.7206 3.54802 32.2208L3.53619 32.499L11.4426 34.7292Z" fill="#131C1B"/>
                <path d="M86.6632 34.9626L86.6987 34.9072L88.7123 36.4868L88.6792 36.5339C87.9291 37.5972 86.9661 38.4671 85.8966 39.0494C84.8551 39.6109 83.6979 39.926 82.5146 39.9703C81.3312 40.0147 80.1535 39.7871 79.0727 39.3052C78.114 38.8661 77.2501 38.2456 76.5291 37.4781C75.7914 36.6928 75.2073 35.7774 74.8065 34.7787C73.9709 32.6453 73.9709 30.2768 74.8065 28.1434C75.207 27.1438 75.7911 26.2275 76.5291 25.4416C77.2522 24.6745 78.1181 24.0548 79.0786 23.6169C80.158 23.1346 81.3345 22.9066 82.5167 22.9506C83.6989 22.9945 84.855 23.3092 85.8954 23.8703C86.9673 24.4526 87.9291 25.3214 88.6792 26.3858L88.7123 26.433L86.6987 28.0125L86.6632 27.9571C86.1639 27.1744 85.505 26.5284 84.7597 26.0899C84.0587 25.6749 83.2659 25.4381 82.4513 25.4005C81.6368 25.3628 80.8254 25.5255 80.0889 25.8742C79.4453 26.1807 78.8621 26.6192 78.3569 27.1779C77.8536 27.7441 77.4558 28.3951 77.1821 29.1005C76.6019 30.6207 76.6019 32.3002 77.1821 33.8204C77.4563 34.5252 77.8541 35.1758 78.3569 35.7418C78.8424 36.2859 79.431 36.7289 80.0889 37.0455C80.7477 37.3664 81.4734 37.5306 82.2066 37.5253C83.0915 37.5371 83.9717 37.2942 84.7597 36.8298C85.5327 36.3652 86.1848 35.7255 86.6632 34.9626Z" fill="#131C1B"/>
                <path d="M37.3542 39.917L42.1432 28.7328H42.1846L46.9725 39.9182H49.8237L42.4295 22.9673L41.8971 22.9697L34.503 39.917H37.3542Z" fill="#131C1B"/>
                <path d="M157.551 29.7913L159.944 30.2805C163.157 30.9229 165 32.6439 165 35.0015C165 38.0734 162.504 39.9807 158.486 39.9807C154.934 39.9807 152.267 38.2738 151.351 35.4153L151.334 35.3634L153.863 34.2907L153.883 34.3532C154.403 35.908 155.649 37.761 158.635 37.761C160.872 37.761 162.262 36.7838 162.262 35.2113C162.262 33.9029 161.272 33.1001 159.146 32.6828L156.829 32.1937C153.684 31.5736 152.221 30.1096 152.221 27.5893C152.221 24.8227 154.745 22.8895 158.361 22.8895C160.082 22.8895 161.614 23.3469 162.791 24.2121C163.713 24.8899 164.417 25.8247 164.722 26.7783L164.74 26.8302L162.287 27.8793L162.266 27.8192C161.815 26.5815 160.733 25.108 158.137 25.108C156.129 25.108 154.833 26.0369 154.833 27.4726C154.833 28.7151 155.621 29.387 157.551 29.7913Z" fill="#131C1B"/>
                <path d="M65.5254 33.9724L68.8119 39.9194H65.9134L63.1379 34.7268C62.9522 34.7434 62.7641 34.7551 62.5748 34.7551H58.602V39.9194H55.8526V32.5885H62.1489C64.1423 32.5885 65.9584 31.2212 65.9584 29.0051C65.9584 27.02 64.2843 25.1552 62.2908 25.1552H57.0203L55.8526 23.2915V22.9673H62.5736C65.8945 22.9673 68.6628 25.6974 68.6628 29.0062C68.6628 30.996 67.3851 32.9339 65.5254 33.9724Z" fill="#131C1B"/>
                <path d="M118.879 37.4911V22.9497H118.563L116.124 24.2239V39.9194H126.58V37.4911H118.879Z" fill="#131C1B"/>
                <path d="M104.916 24.2239L107.314 22.9532H107.638V34.3567C107.643 35.1222 107.469 35.8783 107.131 36.5657C106.795 37.2462 106.324 37.852 105.747 38.3469C105.138 38.8608 104.446 39.2663 103.698 39.5433C102.894 39.8416 102.042 39.9901 101.184 39.983C100.339 39.9889 99.4996 39.8386 98.7092 39.5398C97.9726 39.2621 97.291 38.857 96.6956 38.3433C96.125 37.8487 95.662 37.243 95.3351 36.5634C95.0021 35.8737 94.8314 35.1174 94.8358 34.352V24.2239L97.2398 22.9956H97.5616V33.4007C97.5581 34.7976 97.6563 35.2349 97.8479 35.6333C98.2406 36.4464 98.9377 37.0736 99.7893 37.3803C100.246 37.5512 100.729 37.6384 101.216 37.6361C101.712 37.6404 102.204 37.5537 102.668 37.3803C103.1 37.2183 103.499 36.9781 103.844 36.6718C104.17 36.3771 104.435 36.0211 104.628 35.6251C104.817 35.2255 104.916 34.7881 104.912 34.3461L104.916 24.2239Z" fill="#131C1B"/>
                <path d="M142.471 24.2239L144.869 22.9532H145.193V34.3567C145.198 35.1222 145.025 35.8783 144.687 36.5657C144.35 37.2465 143.879 37.8524 143.301 38.3469C142.694 38.8609 142.001 39.2658 141.255 39.5433C140.45 39.8416 139.598 39.9901 138.741 39.983C137.895 39.989 137.056 39.8387 136.266 39.5398C135.529 39.2623 134.847 38.8573 134.251 38.3433C133.68 37.8486 133.217 37.2429 132.89 36.5634C132.557 35.8737 132.387 35.1174 132.391 34.352V24.2239L134.795 22.9956H135.117V33.4007C135.113 34.7976 135.212 35.2349 135.403 35.6333C135.595 36.0294 135.861 36.3854 136.186 36.6824C136.526 36.9842 136.919 37.2211 137.345 37.3803C137.801 37.5512 138.284 37.6384 138.771 37.6361C139.267 37.6408 139.759 37.5536 140.223 37.3803C140.656 37.2188 141.055 36.9783 141.399 36.6718C141.726 36.3771 141.992 36.0211 142.183 35.6251C142.374 35.2255 142.471 34.7881 142.467 34.3461L142.471 24.2239Z" fill="#131C1B"/>
              </svg>

<svg xmlns="http://www.w3.org/2000/svg" width="165" height="48" fill="none" viewBox="0 0 165 48"><path fill="#131c1b" d="M40.4 37.389h3.526l-.001.002a.224.224 0 0 1 .222.221v2.079a.22.22 0 0 1-.222.222H40.4a.223.223 0 0 1-.223-.222v-2.079a.22.22 0 0 1 .223-.224M11.443 34.73l7.96-2.231.003.624-7.067 3.712v2.357a.2.2 0 0 1-.062.15l-.704.688h-.225l-.689-.69a.21.21 0 0 1-.061-.147v-2.356L3.53 33.124l.005.181 5.45 5.473v8.518a.18.18 0 0 1-.103.161.18.18 0 0 1-.19-.025c-1.022-.84-4.448-3.803-5.684-6.767L.21 28.146 0 22.885l.324.005.852 1.645v-.075a10.18 10.18 0 0 1 2.216-6.354c.815-1.126 1.977-2.157 3.626-2.89.96-.459 1.986-.765 3.042-.908L11.26 0h.183v32.86s-5.715-.14-7.895-.64l-.012.279zM86.663 34.963l.036-.056 2.013 1.58-.033.047c-.75 1.063-1.713 1.933-2.782 2.515a7.74 7.74 0 0 1-6.824.256 8.1 8.1 0 0 1-2.544-1.827 8.7 8.7 0 0 1-1.722-2.7 9.1 9.1 0 0 1 0-6.635c.4-1 .984-1.916 1.722-2.701a8.2 8.2 0 0 1 2.55-1.825 7.72 7.72 0 0 1 6.816.253c1.072.583 2.034 1.451 2.784 2.516l.033.047-2.013 1.58-.036-.056a5.75 5.75 0 0 0-1.903-1.867 4.98 4.98 0 0 0-4.671-.216 5.6 5.6 0 0 0-1.732 1.304 6.4 6.4 0 0 0-1.175 1.922c-.58 1.52-.58 3.2 0 4.72a6.4 6.4 0 0 0 1.175 1.922 5.5 5.5 0 0 0 1.732 1.303 4.76 4.76 0 0 0 2.118.48 4.9 4.9 0 0 0 2.553-.695 5.7 5.7 0 0 0 1.903-1.867"/><path fill="#131c1b" d="m37.354 39.917 4.79-11.184h.04l4.788 11.185h2.852l-7.395-16.95-.532.002-7.394 16.947zM157.551 29.791l2.393.49c3.213.642 5.056 2.363 5.056 4.72 0 3.072-2.496 4.98-6.514 4.98-3.552 0-6.219-1.707-7.135-4.566l-.017-.052 2.529-1.072.02.062c.52 1.555 1.766 3.408 4.752 3.408 2.237 0 3.627-.977 3.627-2.55 0-1.308-.99-2.11-3.116-2.528l-2.317-.49c-3.145-.62-4.608-2.083-4.608-4.604 0-2.766 2.524-4.7 6.14-4.7 1.721 0 3.253.458 4.43 1.323.922.678 1.626 1.613 1.931 2.566l.018.052-2.453 1.05-.021-.06c-.451-1.239-1.533-2.712-4.129-2.712-2.008 0-3.304.929-3.304 2.365 0 1.242.788 1.914 2.718 2.318M65.525 33.972l3.287 5.947h-2.899l-2.775-5.192a6 6 0 0 1-.563.028h-3.973v5.164h-2.75v-7.33h6.297c1.993 0 3.81-1.368 3.81-3.584 0-1.985-1.675-3.85-3.668-3.85h-5.27l-1.168-1.864v-.324h6.72c3.321 0 6.09 2.73 6.09 6.04 0 1.989-1.278 3.927-3.138 4.965M118.879 37.491V22.95h-.316l-2.439 1.274v15.695h10.456v-2.428zM104.916 24.224l2.398-1.27h.324v11.403a4.9 4.9 0 0 1-.507 2.209 5.6 5.6 0 0 1-1.384 1.78 6.9 6.9 0 0 1-2.049 1.197 7 7 0 0 1-2.514.44 6.9 6.9 0 0 1-2.475-.443 6.7 6.7 0 0 1-2.013-1.197 5.5 5.5 0 0 1-1.36-1.78 5 5 0 0 1-.5-2.211V24.224l2.404-1.228h.322V33.4c-.004 1.397.094 1.834.286 2.232a3.46 3.46 0 0 0 1.941 1.747c.457.171.94.258 1.427.256.496.004.988-.082 1.452-.256a3.8 3.8 0 0 0 1.176-.708c.326-.295.591-.65.784-1.047.189-.4.288-.837.284-1.279zM142.471 24.224l2.398-1.27h.324v11.403a4.9 4.9 0 0 1-.506 2.209 5.6 5.6 0 0 1-1.386 1.78c-.607.515-1.3.92-2.046 1.197a7.1 7.1 0 0 1-2.514.44 6.9 6.9 0 0 1-2.475-.443 6.7 6.7 0 0 1-2.015-1.197 5.5 5.5 0 0 1-1.361-1.78 5 5 0 0 1-.499-2.211V24.224l2.404-1.228h.322V33.4c-.004 1.397.095 1.834.286 2.232.192.396.458.752.783 1.05.34.301.733.538 1.159.697.456.171.939.258 1.426.256a4 4 0 0 0 1.452-.256 3.7 3.7 0 0 0 1.176-.708c.327-.295.593-.65.784-1.047.191-.4.288-.837.284-1.279z"/></svg>
